assets/post/images/redis1.svg

<svg xmlns="http://www.w3.org/2000/svg" width="2314" height="428" overflow="hidden"><defs><clipPath id="a"><path d="M373 152h2314v428H373z"/></clipPath><clipPath id="b"><path d="M1087-290h230V789h-230z"/></clipPath><clipPath id="c"><path d="M2455-290h227V789h-227z"/></clipPath></defs><g clip-path="url(#a)" transform="translate(-373 -152)"><path fill="#d74514" fill-rule="evenodd" d="M375.544 342.512h336.561v209H375.544Zm336.561 0h375.155v209H712.105Zm375.155 0h229.27v209h-229.27Zm1368.63 0h225.79v209h-225.79Z"/><path fill="none" stroke="#000" stroke-linejoin="round" stroke-miterlimit="10" stroke-width="4.583" d="M712.105 340.22v213.583M1087.26 340.22v213.583m229.27-213.583v213.583M1716 340.22v213.583m382.11-213.583v213.583m357.78-213.583v213.583M373.252 342.512H2683.98M375.544 340.22v213.583M2681.68 340.22v213.583m-2308.428-2.291H2683.98"/><text font-family="Courier New,Courier New_MSFontService,sans-serif" font-size="64" font-weight="400" transform="translate(505.439 229)">32<tspan x="-38.385" y="77">bits</tspan><tspan x="355.859" y="0">32</tspan><tspan x="317.474" y="77">bits</tspan><tspan x="658.07" y="0">16</tspan></text><g clip-path="url(#b)"><text font-family="Courier New,Courier New_MSFontService,sans-serif" font-size="64" font-weight="400" transform="translate(1125.12 306)">bits</text></g><text font-family="Courier New,Courier New_MSFontService,sans-serif" font-size="64" font-weight="400" transform="translate(2549.59 229)">8</text><g clip-path="url(#c)"><text font-family="Courier New,Courier New_MSFontService,sans-serif" font-size="64" font-weight="400" transform="translate(2492.02 306)">bits</text></g><text fill="#fff" font-family="Courier New,Courier New_MSFontService,sans-serif" font-size="73" font-weight="700" transform="translate(433.538 468)">bytes<tspan x="377.917" y="-44">t</tspan>ail <tspan x="333.802" y="44">offset</tspan><tspan x="702.185" y="0">len</tspan><tspan x="972.439" y="0" fill="#d74514">entry</tspan><tspan x="1363.23" y="0" fill="#d74514">entry</tspan><tspan x="1733.18" y="0" fill="#d74514">entry</tspan><tspan x="2069.08" y="0">end</tspan></text></g></svg>

<svg width="2314" height="428" xmlns="http://www.w3.org/2000/svg" xmlns:xlink="http://www.w3.org/1999/xlink" overflow="hidden"><defs><clipPath id="clip0"><rect x="373" y="152" width="2314" height="428"/></clipPath><clipPath id="clip1"><rect x="1087" y="-290" width="230" height="1079"/></clipPath><clipPath id="clip2"><rect x="2455" y="-290" width="227" height="1079"/></clipPath></defs><g clip-path="url(#clip0)" transform="translate(-373 -152)"><path d="M375.544 342.512 712.105 342.512 712.105 551.512 375.544 551.512Z" fill="#D74514" fill-rule="evenodd"/><path d="M712.105 342.512 1087.26 342.512 1087.26 551.512 712.105 551.512Z" fill="#D74514" fill-rule="evenodd"/><path d="M1087.26 342.512 1316.53 342.512 1316.53 551.512 1087.26 551.512Z" fill="#D74514" fill-rule="evenodd"/><path d="M2455.89 342.512 2681.68 342.512 2681.68 551.512 2455.89 551.512Z" fill="#D74514" fill-rule="evenodd"/><path d="M712.105 340.22 712.105 553.803" stroke="#000000" stroke-width="4.58333" stroke-linejoin="round" stroke-miterlimit="10" fill="none" fill-rule="evenodd"/><path d="M1087.26 340.22 1087.26 553.803" stroke="#000000" stroke-width="4.58333" stroke-linejoin="round" stroke-miterlimit="10" fill="none" fill-rule="evenodd"/><path d="M1316.53 340.22 1316.53 553.803" stroke="#000000" stroke-width="4.58333" stroke-linejoin="round" stroke-miterlimit="10" fill="none" fill-rule="evenodd"/><path d="M1716 340.22 1716 553.803" stroke="#000000" stroke-width="4.58333" stroke-linejoin="round" stroke-miterlimit="10" fill="none" fill-rule="evenodd"/><path d="M2098.11 340.22 2098.11 553.803" stroke="#000000" stroke-width="4.58333" stroke-linejoin="round" stroke-miterlimit="10" fill="none" fill-rule="evenodd"/><path d="M2455.89 340.22 2455.89 553.803" stroke="#000000" stroke-width="4.58333" stroke-linejoin="round" stroke-miterlimit="10" fill="none" fill-rule="evenodd"/><path d="M373.252 342.512 2683.98 342.512" stroke="#000000" stroke-width="4.58333" stroke-linejoin="round" stroke-miterlimit="10" fill="none" fill-rule="evenodd"/><path d="M375.544 340.22 375.544 553.803" stroke="#000000" stroke-width="4.58333" stroke-linejoin="round" stroke-miterlimit="10" fill="none" fill-rule="evenodd"/><path d="M2681.68 340.22 2681.68 553.803" stroke="#000000" stroke-width="4.58333" stroke-linejoin="round" stroke-miterlimit="10" fill="none" fill-rule="evenodd"/><path d="M373.252 551.512 2683.98 551.512" stroke="#000000" stroke-width="4.58333" stroke-linejoin="round" stroke-miterlimit="10" fill="none" fill-rule="evenodd"/><text font-family="Courier New,Courier New_MSFontService,sans-serif" font-weight="400" font-size="64" transform="matrix(1 0 0 1 505.439 229)">32<tspan font-size="64" x="-38.3854" y="77">bits</tspan><tspan font-size="64" x="355.859" y="0">32</tspan><tspan font-size="64" x="317.474" y="77">bits</tspan><tspan font-size="64" x="658.07" y="0">16</tspan></text><g clip-path="url(#clip1)"><text font-family="Courier New,Courier New_MSFontService,sans-serif" font-weight="400" font-size="64" transform="matrix(1 0 0 1 1125.12 306)">bits</text></g><text font-family="Courier New,Courier New_MSFontService,sans-serif" font-weight="400" font-size="64" transform="matrix(1 0 0 1 2549.59 229)">8</text><g clip-path="url(#clip2)"><text font-family="Courier New,Courier New_MSFontService,sans-serif" font-weight="400" font-size="64" transform="matrix(1 0 0 1 2492.02 306)">bits</text></g><text fill="#FFFFFF" font-family="Courier New,Courier New_MSFontService,sans-serif" font-weight="700" font-size="73" transform="matrix(1 0 0 1 433.538 468)">bytes<tspan font-size="73" x="377.917" y="-44">t</tspan>ail <tspan font-size="73" x="333.802" y="44">offset</tspan><tspan font-size="73" x="702.185" y="0">len</tspan><tspan fill="#D74514" font-size="73" x="972.439" y="0">entry</tspan><tspan fill="#D74514" font-size="73" x="1363.23" y="0">entry</tspan><tspan fill="#D74514" font-size="73" x="1733.18" y="0">entry</tspan><tspan font-size="73" x="2069.08" y="0">end</tspan></text></g></svg>
